icons/breeding_sites.svg

<svg width="48" height="48" viewBox="0 0 48 48" fill="none" xmlns="http://www.w3.org/2000/svg">
<path fill-rule="evenodd" clip-rule="evenodd" d="M32.0278 29.8221C33.3318 29.8221 34.3889 28.7795 34.3889 27.4933C34.3889 26.2072 33.3318 25.1646 32.0278 25.1646C30.7238 25.1646 29.6667 26.2072 29.6667 27.4933C29.6667 28.7795 30.7238 29.8221 32.0278 29.8221ZM32.0278 27.8221C32.2533 27.8221 32.3889 27.649 32.3889 27.4933C32.3889 27.3377 32.2533 27.1646 32.0278 27.1646C31.8023 27.1646 31.6667 27.3377 31.6667 27.4933C31.6667 27.649 31.8023 27.8221 32.0278 27.8221Z" fill="black"/>
<path fill-rule="evenodd" clip-rule="evenodd" d="M7.93475 6.64464C7.73847 6.12841 7.16087 5.86903 6.64464 6.06531C6.12841 6.26158 5.86903 6.83918 6.06531 7.35541C6.93633 9.64632 8.99025 10.7945 11.0729 10.7945C12.7036 10.7945 14.3655 10.0956 15.5464 8.7211C16.733 10.047 18.1913 10.7945 19.75 10.7945C21.3022 10.7945 22.7548 10.0533 23.9386 8.73786C25.0266 10.0711 26.4972 10.7946 28.0729 10.7946C29.6824 10.7946 31.2522 10.0406 32.4939 8.66177C32.9172 9.14418 33.3759 9.5523 33.862 9.87827C32.4851 10.9538 31.5402 12.437 30.9204 13.6938C30.5002 14.5459 30.2075 15.3387 30.0195 15.9185L30.013 15.9386C28.6031 15.71 27.1047 15.749 25.6003 16.1005C25.0641 16.2258 24.5466 16.3863 24.0502 16.5785C23.9436 14.5656 22.2584 12.9867 20.2223 12.9867C19.7684 12.9867 19.3318 13.0651 18.9263 13.2093C18.2013 12.4952 17.2018 12.0549 16.1011 12.0549C14.3989 12.0549 12.9343 13.1089 12.3576 14.6069C10.3011 14.7628 8.66166 16.4611 8.66166 18.5591C8.66166 18.8718 8.69841 19.1765 8.76789 19.4689C7.67408 20.1735 6.94447 21.3948 6.94447 22.7932C6.94447 23.8745 7.38187 24.8512 8.08525 25.5636C7.9033 26.0166 7.80304 26.5107 7.80304 27.0273C7.80304 28.7389 8.89421 30.1845 10.4128 30.7436C10.3904 30.9132 10.3788 31.0861 10.3788 31.2615C10.3788 32.4862 10.9393 33.5758 11.8125 34.3004C11.7172 34.6539 11.6667 35.0273 11.6667 35.4113C11.6667 36.0309 11.7983 36.6236 12.038 37.1499C11.8011 37.6057 11.6667 38.1235 11.6667 38.6717C11.6667 40.5231 13.1846 42.0005 15.0278 42.0005C16.871 42.0005 18.3889 40.5231 18.3889 38.6717C18.3889 38.1235 18.2545 37.6057 18.0176 37.1499C18.2573 36.6236 18.3889 36.0309 18.3889 35.4113C18.3889 34.6413 18.1853 33.91 17.8213 33.2966C18.181 32.7024 18.3889 32.0059 18.3889 31.2615C18.3889 29.9241 17.7202 28.7473 16.7063 28.0319C16.6003 27.6812 16.4886 27.1649 16.4084 26.5456C16.3052 25.748 16.2636 24.8516 16.3334 24.0317C16.405 23.1891 16.5856 22.5376 16.8405 22.1419C16.96 21.9565 17.0788 21.8535 17.1877 21.7963C17.2909 21.7421 17.4399 21.7 17.6751 21.7218C17.8981 21.7425 18.1128 21.7503 18.3196 21.7465C17.4644 23.5261 17.1903 25.5353 17.6688 27.527C18.8714 32.533 24.3722 35.5335 29.9553 34.2288C35.5383 32.924 39.0894 27.8082 37.8868 22.8022C37.1628 19.7886 34.8811 17.5017 31.9614 16.4435C32.1285 15.9376 32.3799 15.2691 32.73 14.5591C33.4835 13.0311 34.6103 11.4823 36.1762 10.7877C36.1919 10.7808 36.2073 10.7735 36.2225 10.7658C36.3969 10.7849 36.5728 10.7945 36.75 10.7945C38.726 10.7945 40.5407 9.59315 41.8447 7.53529C42.1403 7.06878 42.0018 6.45096 41.5353 6.15534C41.0688 5.85972 40.451 5.99826 40.1553 6.46476C39.0983 8.13294 37.8435 8.79455 36.75 8.79455C35.6565 8.79455 34.4018 8.13294 33.3447 6.46476C33.1613 6.17539 32.8426 6.00003 32.5 6.00003C32.1574 6.00003 31.8387 6.1754 31.6553 6.46477C30.6184 8.10116 29.2559 8.79457 28.0729 8.79456C26.9102 8.79456 25.692 8.12603 24.892 6.54786C24.7294 6.2271 24.407 6.01836 24.0478 6.00117C23.6886 5.98398 23.3478 6.161 23.1553 6.46476C22.0983 8.13294 20.8435 8.79455 19.75 8.79455C18.6565 8.79455 17.4018 8.13294 16.3447 6.46476C16.1522 6.161 15.8114 5.98398 15.4522 6.00117C15.093 6.01836 14.7707 6.2271 14.6081 6.54786C13.8407 8.06163 12.423 8.79455 11.0729 8.79455C9.73202 8.79455 8.48039 8.07976 7.93475 6.64464ZM30.5019 18.0826C30.4414 18.0694 30.3835 18.0511 30.3284 18.0282C29.0156 17.7166 27.5641 17.6954 26.0675 18.0452C21.3576 19.1459 18.7178 23.3315 19.6163 27.0719C20.5149 30.8123 24.7782 33.3848 29.4881 32.2841C34.198 31.1834 36.8378 26.9977 35.9393 23.2574C35.3469 20.7914 33.2921 18.8331 30.611 18.1003C30.5747 18.0964 30.5383 18.0905 30.5019 18.0826ZM14.113 15.761C14.2398 14.8091 15.0727 14.0549 16.1011 14.0549C16.8251 14.0549 17.4553 14.4294 17.808 14.9878L18.3517 15.8485L19.2026 15.2895C19.493 15.0987 19.8423 14.9867 20.2223 14.9867C21.1931 14.9867 21.9687 15.7182 22.0488 16.626C21.7979 17.2796 21.4236 17.7637 20.9345 18.1166L20.7877 18.2225L20.6873 18.3732C20.2043 19.0984 19.3668 19.8701 17.8597 19.7304C17.2815 19.6768 16.7392 19.773 16.2583 20.0254C15.783 20.2748 15.4248 20.6465 15.1593 21.0586C14.6443 21.8579 14.4231 22.8922 14.3406 23.8622C14.2561 24.8549 14.3079 25.8979 14.425 26.8023C14.5401 27.6918 14.728 28.5213 14.9521 29.0681L15.0834 29.3886L15.3848 29.5593C15.9915 29.9026 16.3889 30.5403 16.3889 31.2615C16.3889 31.7793 16.1855 32.2504 15.8473 32.6039L15.1785 33.3031L15.8553 33.9946C16.1632 34.3092 16.3889 34.8113 16.3889 35.4113C16.3889 35.8885 16.2456 36.3072 16.0291 36.6175L15.5912 37.245L16.0825 37.8318C16.2755 38.0622 16.3889 38.3535 16.3889 38.6717C16.3889 39.3926 15.7926 40.0005 15.0278 40.0005C14.263 40.0005 13.6667 39.3926 13.6667 38.6717C13.6667 38.3535 13.7801 38.0622 13.9731 37.8318L14.4645 37.245L14.0265 36.6175C13.81 36.3072 13.6667 35.8885 13.6667 35.4113C13.6667 35.022 13.7621 34.6706 13.9159 34.3852L14.4064 33.4747L13.4799 33.0151C12.8195 32.6876 12.3788 32.0204 12.3788 31.2615C12.3788 30.9599 12.4475 30.6765 12.5699 30.4231L13.2299 29.057L11.7142 28.9891C10.6386 28.941 9.80304 28.069 9.80304 27.0273C9.80304 26.6049 9.9381 26.2153 10.17 25.8945L10.8006 25.0221L9.88412 24.4574C9.3137 24.1059 8.94447 23.4887 8.94447 22.7932C8.94447 21.93 9.51646 21.1839 10.3283 20.9251L11.4878 20.5556L10.9005 19.4898C10.7481 19.2133 10.6617 18.8973 10.6617 18.5591C10.6617 17.4874 11.5463 16.5952 12.6667 16.5952C12.7717 16.5952 12.8741 16.603 12.9736 16.6179L13.9788 16.7685L14.113 15.761Z" fill="black"/>
</svg>

<svg
  xmlns="http://www.w3.org/2000/svg"
  width="24"
  height="24"
  viewBox="0 0 24 24"
  fill="none"
  stroke="currentColor"
  stroke-width="2"
  stroke-linecap="round"
  stroke-linejoin="round"
>
  <path
    fill-rule="evenodd"
    d="M32.028 29.822c1.304 0 2.36-1.043 2.36-2.329s-1.056-2.328-2.36-2.328-2.361 1.042-2.361 2.328c0 1.287 1.057 2.33 2.36 2.33m0-2c.225 0 .36-.173.36-.329 0-.155-.135-.328-.36-.328-.226 0-.361.173-.361.328s.135.33.36.33"
    clip-rule="evenodd"
  />
  <path
    fill-rule="evenodd"
    d="M7.935 6.645a1 1 0 0 0-1.87.71c.871 2.291 2.925 3.44 5.008 3.44 1.63 0 3.293-.7 4.473-2.074 1.187 1.326 2.645 2.073 4.204 2.073 1.552 0 3.005-.74 4.189-2.056 1.088 1.333 2.558 2.057 4.134 2.057 1.61 0 3.18-.754 4.42-2.133.424.482.883.89 1.369 1.216-1.377 1.076-2.322 2.559-2.942 3.816-.42.852-.713 1.645-.9 2.224l-.007.02a11.4 11.4 0 0 0-4.413.162q-.804.19-1.55.478c-.106-2.012-1.792-3.591-3.828-3.591-.454 0-.89.078-1.296.222a4.01 4.01 0 0 0-2.825-1.154 4.01 4.01 0 0 0-3.743 2.552c-2.057.156-3.696 1.854-3.696 3.952q0 .47.106.91a3.95 3.95 0 0 0-1.824 3.324 3.93 3.93 0 0 0 1.141 2.77 3.9 3.9 0 0 0-.282 1.464c0 1.712 1.091 3.157 2.61 3.717q-.034.255-.034.518c0 1.224.56 2.314 1.434 3.038a4.3 4.3 0 0 0-.146 1.111c0 .62.131 1.213.371 1.739a3.3 3.3 0 0 0-.371 1.522c0 1.851 1.518 3.329 3.36 3.329 1.844 0 3.362-1.478 3.362-3.33 0-.547-.134-1.065-.371-1.521.24-.526.37-1.12.37-1.739 0-.77-.203-1.501-.567-2.114.36-.595.568-1.291.568-2.035a3.95 3.95 0 0 0-1.683-3.23 9.7 9.7 0 0 1-.298-1.486 12 12 0 0 1-.075-2.514c.072-.843.253-1.494.508-1.89a.95.95 0 0 1 .347-.346c.103-.054.252-.096.487-.074q.334.03.645.024c-.856 1.78-1.13 3.79-.651 5.781 1.202 5.006 6.703 8.006 12.286 6.702s9.134-6.42 7.932-11.427c-.724-3.013-3.006-5.3-5.926-6.358a15 15 0 0 1 .769-1.885c.754-1.528 1.88-3.077 3.446-3.771l.046-.022q.262.028.528.028c1.976 0 3.79-1.2 5.095-3.259a1 1 0 1 0-1.69-1.07c-1.057 1.668-2.312 2.33-3.405 2.33s-2.348-.662-3.405-2.33a1 1 0 0 0-1.69 0c-1.037 1.636-2.4 2.33-3.582 2.33-1.163 0-2.381-.669-3.181-2.247a1 1 0 0 0-1.737-.083c-1.057 1.668-2.312 2.33-3.405 2.33s-2.348-.662-3.405-2.33a1 1 0 0 0-1.737.083c-.767 1.514-2.185 2.247-3.535 2.247-1.341 0-2.593-.715-3.138-2.15m22.567 11.438a1 1 0 0 1-.174-.055 9.3 9.3 0 0 0-4.26.017c-4.71 1.1-7.35 5.286-6.452 9.027.899 3.74 5.162 6.313 9.872 5.212s7.35-5.286 6.451-9.027c-.592-2.466-2.647-4.424-5.328-5.157a1 1 0 0 1-.11-.017M14.113 15.76c.127-.952.96-1.706 1.988-1.706.724 0 1.354.374 1.707.933l.544.86.85-.559c.291-.19.64-.302 1.02-.302.971 0 1.747.731 1.827 1.639-.251.654-.625 1.138-1.114 1.49l-.147.107-.1.15c-.484.725-1.321 1.497-2.828 1.357a2.83 2.83 0 0 0-1.602.295 2.94 2.94 0 0 0-1.099 1.034c-.515.799-.736 1.833-.818 2.803-.085.993-.033 2.036.084 2.94.115.89.303 1.72.527 2.266l.131.32.302.171a1.96 1.96 0 0 1 1.004 1.703c0 .517-.203.988-.542 1.342l-.668.7.676.69c.308.315.534.817.534 1.417 0 .477-.143.896-.36 1.206l-.438.628.492.587a1.3 1.3 0 0 1 .306.84c0 .72-.596 1.329-1.361 1.329s-1.361-.608-1.361-1.33c0-.318.113-.609.306-.84l.491-.586-.437-.627a2.1 2.1 0 0 1-.36-1.207c0-.389.095-.74.249-1.026l.49-.91-.926-.46a1.96 1.96 0 0 1-1.101-1.753c0-.302.069-.585.19-.839l.66-1.366-1.515-.068c-1.075-.048-1.911-.92-1.911-1.962 0-.422.135-.812.367-1.133l.63-.872-.916-.565a1.95 1.95 0 0 1-.94-1.664c0-.863.572-1.61 1.384-1.868l1.16-.37-.588-1.065a1.9 1.9 0 0 1-.238-.93c0-1.073.884-1.965 2.005-1.965q.157 0 .307.023l1.005.15z"
    clip-rule="evenodd"
  />
</svg>
